contributed-vectors/popcons.svg

<svg xmlns="http://www.w3.org/2000/svg" viewBox="0 0 192 192"><circle cx="96" cy="96" r="88" style="fill:#96dfd3;opacity:1;stroke:none;stroke-linecap:round;stroke-linejoin:round;isolation:isolate"/><rect width="20" height="20" x="60" y="80" ry="10" style="opacity:1;vector-effect:none;fill:#fff;fill-opacity:1;fill-rule:evenodd;stroke:none;paint-order:stroke fill markers"/><rect width="20" height="20" x="112" y="80" ry="10" style="opacity:1;vector-effect:none;fill:#fff;fill-opacity:1;fill-rule:evenodd;stroke:none;paint-order:stroke fill markers"/><path d="M76 108s2.067 7 9.5 7 10.5-7 10.5-7 1.992 7 10 7 10-7 10-7" style="fill:none;stroke:#fff;stroke-width:6;stroke-linecap:round;stroke-linejoin:round;stroke-miterlimit:4;stroke-dasharray:none;stroke-opacity:1"/><path d="M96 32c-35.456 0-64 28.544-64 64s28.544 64 64 64 64-28.544 64-64-28.544-64-64-64zm0 8c31.024 0 56 24.976 56 56s-24.976 56-56 56-56-24.976-56-56 24.976-56 56-56z" style="opacity:.5;vector-effect:none;fill:#fff;fill-opacity:1;fill-rule:evenodd;stroke:none;stroke-width:6;stroke-linecap:round;stroke-linejoin:round;stroke-miterlimit:4;stroke-dasharray:none;paint-order:stroke fill markers"/></svg>

<?xml version="1.0" encoding="UTF-8" standalone="no"?>
<svg
   xmlns:dc="http://purl.org/dc/elements/1.1/"
   xmlns:cc="http://creativecommons.org/ns#"
   xmlns:rdf="http://www.w3.org/1999/02/22-rdf-syntax-ns#"
   xmlns:svg="http://www.w3.org/2000/svg"
   xmlns="http://www.w3.org/2000/svg"
   xmlns:sodipodi="http://sodipodi.sourceforge.net/DTD/sodipodi-0.dtd"
   xmlns:inkscape="http://www.inkscape.org/namespaces/inkscape"
   viewBox="0 0 192 192"
   version="1.1"
   id="svg16"
   sodipodi:docname="popcons.svg"
   inkscape:version="0.92.4 (5da689c313, 2019-01-14)">
  <metadata
     id="metadata20">
    <rdf:RDF>
      <cc:Work
         rdf:about="">
        <dc:format>image/svg+xml</dc:format>
        <dc:type
           rdf:resource="http://purl.org/dc/dcmitype/StillImage" />
        <dc:title></dc:title>
      </cc:Work>
    </rdf:RDF>
  </metadata>
  <sodipodi:namedview
     pagecolor="#ffffff"
     bordercolor="#666666"
     borderopacity="1"
     objecttolerance="10"
     gridtolerance="10"
     guidetolerance="10"
     inkscape:pageopacity="0"
     inkscape:pageshadow="2"
     inkscape:window-width="1920"
     inkscape:window-height="1017"
     id="namedview18"
     showgrid="true"
     inkscape:zoom="1.7383042"
     inkscape:cx="43.165196"
     inkscape:cy="93.67496"
     inkscape:window-x="-8"
     inkscape:window-y="-8"
     inkscape:window-maximized="1"
     inkscape:current-layer="svg16">
    <inkscape:grid
       type="xygrid"
       id="grid827"
       spacingx="4"
       spacingy="4" />
  </sodipodi:namedview>
  <defs
     id="defs4">
    <style
       id="style2">.a{fill:none;stroke:#b1b5bd;stroke-linecap:round;stroke-linejoin:round;isolation:isolate;opacity:0.63;}</style>
  </defs>
  <circle
     class="a"
     cx="96"
     cy="96"
     r="88"
     id="circle8"
     style="fill:#96dfd3;opacity:1;stroke:none" />
  <rect
     style="opacity:1;vector-effect:none;fill:#ffffff;fill-opacity:1;fill-rule:evenodd;stroke:none;paint-order:stroke fill markers"
     id="rect829"
     width="20"
     height="20"
     x="60"
     y="80"
     ry="10" />
  <rect
     style="opacity:1;vector-effect:none;fill:#ffffff;fill-opacity:1;fill-rule:evenodd;stroke:none;paint-order:stroke fill markers"
     id="rect831"
     width="20"
     height="20"
     x="112"
     y="80"
     ry="10" />
  <path
     style="fill:none;stroke:#ffffff;stroke-width:6;stroke-linecap:round;stroke-linejoin:round;stroke-miterlimit:4;stroke-dasharray:none;stroke-opacity:1"
     d="m 76,108 c 0,0 2.067248,7 9.5,7 7.432752,0 10.5,-7 10.5,-7 0,0 1.991974,7 10,7 8.00803,0 10,-7 10,-7"
     id="path833"
     inkscape:connector-curvature="0"
     sodipodi:nodetypes="czczc" />
  <path
     style="opacity:0.5;vector-effect:none;fill:#ffffff;fill-opacity:1;fill-rule:evenodd;stroke:none;stroke-width:6;stroke-linecap:round;stroke-linejoin:round;stroke-miterlimit:4;stroke-dasharray:none;paint-order:stroke fill markers"
     d="M 96 32 C 60.544 32 32 60.544 32 96 C 32 131.456 60.544 160 96 160 C 131.456 160 160 131.456 160 96 C 160 60.544 131.456 32 96 32 z M 96 40 C 127.024 40 152 64.976 152 96 C 152 127.024 127.024 152 96 152 C 64.976 152 40 127.024 40 96 C 40 64.976 64.976 40 96 40 z "
     id="rect835" />
</svg>
